X: 37
P: Blinkbonny
M: C
L: 1/8
K: F
"A"\
| "F"F>A c>d c<A F>E | "Bb"D>F B>D "C7"C2 A>G \
| "F"F>A c>A "Dm"d>c A>F | "G7"G>A G<F "C7"E2 D>C |
y4 \
| "F"F>A c>d c<A F>E | "Bb"D>F B>D "C7"C2 A>B \
| "F"c>A C>A "C7"B<G E>G | "F"(3FEF "C7"A>G "F"F2 |]
"C7"A>B \
"B"\
| "F"c>d c<A "Dm"f>d "Am"c<A | "Gm"B>c (3dcB "C7"G2 A>G \
| "F"F>A c>A "Dm"d>c A>F | "G(m)"G>A G<F "C7"E2 A>B |
y4 \
| "F"c>d c<A "Dm"f>d "Am"c<A | "Gm"B>c (3dcB "C7"G2 A>B \
| "F"c<A C>A "Gm"B<G "C7"E>G | "F"(3FEF "C7"A>G "F"F2 |]



